src/images/logo.svg

<?xml version="1.0" standalone="no"?>
<!DOCTYPE svg PUBLIC "-//W3C//DTD SVG 1.0//EN" "http://www.w3.org/TR/2001/REC-SVG-20010904/DTD/svg10.dtd">
<svg xmlns="http://www.w3.org/2000/svg" xmlns:xlink="http://www.w3.org/1999/xlink" id="body_1" width="48" height="48">

<g transform="matrix(0.75 0 0 0.75 0 0)">
    <path transform="matrix(1 0 0 1 0 0)"  d="M55.1 14.15C 53.95 14.15 52.856 14.379 51.85 14.783C 51.813 14.796 51.782 14.812 51.746 14.826C 51.576 14.895 51.418 14.981 51.254 15.061C 50.873 15.281 50.467 15.599 49.809 16.212C 49.809 14.67 49.705 13.395 49.536 12.324C 49.411 11.667 48.337 6.999 42.858 6.999L42.858 6.999L7.478 6.999C 5.857 7.034999 0.04500008 7.566999 0.04500008 13.41L0.04500008 13.41L0.04500008 34.762C 0.04500008 35.668 0.1010001 36.96 0.3050001 38.55L0.3050001 38.55L0.3050001 38.569C 0.7490001 42.19101 1.968 47.33 5.11 52.839C 5.924 55.26001 8.216 56.998 10.915 56.998L10.915 56.998L39.895 56.998C 42.465 56.998 44.665 55.408 45.571 53.172C 45.571 53.153 45.589 53.153 45.589 53.13401C 45.667 53.00001 45.732 52.87001 45.808 52.73701C 48.21 48.21701 49.564 41.75801 49.79 40.01001C 49.81 40.11801 50.052 40.21501 50.298 40.291C 50.3 40.285 50.3 40.278 50.302 40.273C 50.89 40.467 51.509 40.599 52.163 40.599C 53.899 40.599 55.474 39.841 56.546 38.639C 56.819 38.271 57.079 37.882 57.339 37.531C 62.091 30.822 63.419 26.625 63.79 24.723C 63.808 24.649 63.827 24.575 63.827 24.519C 63.845 24.427 63.845 24.353 63.862 24.261C 63.88 24.095 63.89899 23.927 63.917 23.761C 63.938 23.577 63.938 23.485 63.938 23.485C 63.956 23.31701 63.956 23.151 63.956 22.985C 63.955 18.107 59.98 14.15 55.1 14.15zM12.111 38.845C 10.456 34.69 11.817 28.82 15.936 24.123C 20.447 18.98 26.779 16.941 31.228 18.825C 32.71 19.646 32.358 20.879 32.351 20.906C 31.409 22.839 28.933 26.866 23.315 30.594C 18.234 33.971 15.593 37.492 14.371 39.52C 14.371 39.52 13.237 40.852 12.111 38.845zM32.473 38.53C 28.336 43.247 22.662 45.356 18.318 44.218C 15.984 43.422 16.542 41.424 16.542 41.42C 17.533 39.613 19.596 36.48 24.533 32.805C 31.054 27.95 33.5 24.748 34.686 22.851C 34.686 22.851 35.368 22.179 35.915 23.006C 38.111 27.181 36.867 33.52 32.473 38.53zM60.006 24.419C 60.006 24.419 60.006 24.468 59.996 24.564C 59.986 24.65 59.976 24.737 59.967 24.824C 59.957 24.871 59.957 24.91 59.949 24.958C 59.949 24.987 59.939 25.026 59.929 25.064C 59.736 26.053 59.046 28.233 56.577 31.719C 56.511 31.809 56.442 31.907 56.374 32.00401C 54.95 34.13 53.331 36.43 51.944 36.256C 51.694 36.22601 51.475 36.145 51.268 36.047C 51.159 35.95601 49.807 34.805 49.807 32.56001L49.807 32.56001L49.807 29.21C 49.807 29.21 49.807 27.12901 49.807 24.35801C 49.807 22.03101 52.446 20.52101 53.299 20.09501C 53.342 20.07001 53.385 20.048 53.43 20.026C 53.52 19.98301 53.58001 19.95601 53.58001 19.95601L53.58001 19.95601L53.58801 19.96901C 54.14901 19.72301 54.76001 19.56801 55.41201 19.56801C 57.94901 19.56801 60.01401 21.62601 60.01401 24.16001C 60.016 24.246 60.016 24.333 60.006 24.419z" stroke="none" fill="#DEAA87" fill-rule="nonzero" />
</g>
</svg>

<?xml version="1.0" encoding="UTF-8" standalone="no"?>
<svg
   xmlns:dc="http://purl.org/dc/elements/1.1/"
   xmlns:cc="http://creativecommons.org/ns#"
   xmlns:rdf="http://www.w3.org/1999/02/22-rdf-syntax-ns#"
   xmlns:svg="http://www.w3.org/2000/svg"
   xmlns="http://www.w3.org/2000/svg"
   xmlns:sodipodi="http://sodipodi.sourceforge.net/DTD/sodipodi-0.dtd"
   xmlns:inkscape="http://www.inkscape.org/namespaces/inkscape"
   enable-background="new 0 0 64 64"
   height="64px"
   id="Layer_1"
   version="1.1"
   viewBox="0 0 64 64"
   width="64px"
   xml:space="preserve"
   sodipodi:docname="logo.svg"
   inkscape:version="1.0.1 (3bc2e813f5, 2020-09-07)"><metadata
     id="metadata110"><rdf:RDF><cc:Work
         rdf:about=""><dc:format>image/svg+xml</dc:format><dc:type
           rdf:resource="http://purl.org/dc/dcmitype/StillImage" /></cc:Work></rdf:RDF></metadata><defs
     id="defs108" /><sodipodi:namedview
     pagecolor="#ffffff"
     bordercolor="#666666"
     borderopacity="1"
     objecttolerance="10"
     gridtolerance="10"
     guidetolerance="10"
     inkscape:pageopacity="0"
     inkscape:pageshadow="2"
     inkscape:window-width="1920"
     inkscape:window-height="1017"
     id="namedview106"
     showgrid="false"
     inkscape:zoom="13.28125"
     inkscape:cx="32"
     inkscape:cy="32"
     inkscape:window-x="-8"
     inkscape:window-y="-8"
     inkscape:window-maximized="1"
     inkscape:current-layer="Layer_1" /><path
     d="M55.1,14.15c-1.15,0-2.244,0.229-3.25,0.633c-0.037,0.013-0.068,0.029-0.104,0.043  c-0.17,0.069-0.328,0.155-0.492,0.235c-0.381,0.22-0.787,0.538-1.445,1.151c0-1.542-0.104-2.817-0.273-3.888  c-0.125-0.657-1.199-5.325-6.678-5.325H7.478c-1.621,0.036-7.433,0.568-7.433,6.411v21.352c0,0.906,0.056,2.198,0.26,3.788v0.019  c0.444,3.622,1.663,8.761,4.805,14.27c0.814,2.421,3.106,4.159,5.805,4.159h28.98c2.57,0,4.77-1.59,5.676-3.826  c0-0.019,0.018-0.019,0.018-0.038c0.078-0.134,0.143-0.264,0.219-0.397c2.402-4.52,3.756-10.979,3.982-12.727  c0.02,0.108,0.262,0.205,0.508,0.281c0.002-0.006,0.002-0.013,0.004-0.018c0.588,0.194,1.207,0.326,1.861,0.326  c1.736,0,3.311-0.758,4.383-1.96c0.273-0.368,0.533-0.757,0.793-1.108c4.752-6.709,6.08-10.906,6.451-12.808  c0.018-0.074,0.037-0.148,0.037-0.204c0.018-0.092,0.018-0.166,0.035-0.258c0.018-0.166,0.037-0.334,0.055-0.5  c0.021-0.184,0.021-0.276,0.021-0.276c0.018-0.168,0.018-0.334,0.018-0.5C63.955,18.107,59.98,14.15,55.1,14.15z M12.111,38.845  c-1.655-4.155-0.294-10.025,3.825-14.722c4.511-5.143,10.843-7.182,15.292-5.298c1.482,0.821,1.13,2.054,1.123,2.081  c-0.942,1.933-3.418,5.96-9.036,9.688c-5.081,3.377-7.722,6.898-8.944,8.926C14.371,39.52,13.237,40.852,12.111,38.845z   M32.473,38.53c-4.137,4.717-9.811,6.826-14.155,5.688c-2.334-0.796-1.776-2.794-1.776-2.798c0.991-1.807,3.054-4.94,7.991-8.615  c6.521-4.855,8.967-8.057,10.153-9.954c0,0,0.682-0.672,1.229,0.155C38.111,27.181,36.867,33.52,32.473,38.53z M60.006,24.419  c0,0,0,0.049-0.01,0.145c-0.01,0.086-0.02,0.173-0.029,0.26c-0.01,0.047-0.01,0.086-0.018,0.134c0,0.029-0.01,0.068-0.02,0.106  c-0.193,0.989-0.883,3.169-3.352,6.655c-0.066,0.09-0.135,0.188-0.203,0.285c-1.424,2.126-3.043,4.426-4.43,4.252  c-0.25-0.03-0.469-0.111-0.676-0.209c-0.109-0.091-1.461-1.242-1.461-3.487v-3.35c0,0,0-2.081,0-4.852  c0-2.327,2.639-3.837,3.492-4.263c0.043-0.025,0.086-0.047,0.131-0.069c0.09-0.043,0.15-0.07,0.15-0.07l0.008,0.013  c0.561-0.246,1.172-0.401,1.824-0.401c2.537,0,4.602,2.058,4.602,4.592C60.016,24.246,60.016,24.333,60.006,24.419z"
     fill="#241F20"
     id="path103"
     style="fill:#deaa87" /></svg>
